X:1
T:Title
%%score { ( 1 3 ) | ( 2 4 ) }
L:1/8
Q:1/4=63
M:6/8
K:C
V:1 treble nm="Grand Piano"
V:3 treble 
V:2 bass 
V:4 bass 
V:1
 [G,CE][G,DF][G,EG] [CEA][G,CE][CEG] | [B,FG][B,D][B,DG] [G,CE]3 | %2
w: May~Whittle~Moody * * * * *||
 [G,CE][G,DF][G,EG] [CEA][A,CE][A,EA] | [_EB][E^F][FA] [=EG]2 [EG] | [FG][FA][FB] cB[Ec] | %5
w: |||
 dcA [EG]3 | ABA GcF | EE>[B,D] [G,C]3 | z3 z [Ec]2 | dcA [EG]3 |[M:13/16] ABAGc3/2F | %11
w: ||||||
[M:3/4] EE [B,D] [G,C]3[Q:1/4=61][Q:1/4=59][Q:1/4=57][Q:1/4=55][Q:1/4=53][Q:1/4=51][Q:1/4=49] |] %12
w: |
V:2
 C,C,C, C,C,C, | D,G,G, C,3 | C,C,C, C,C,C, | [B,,E,][B,,B,][B,,B,] [E,B,]2 [E,B,] | %4
 [D,B,][D,C][D,G,] [C,G,]2 [C,_B,] | [F,A,F][F,A,F][F,CF] [C,C]3 | z3 .[C=E]3 | %7
 [G,C][G,B,]>[G,,F,] [C,E,]3 | [C,C][C,G,][C,G,] [C,C] .[C,G,]2 | [F,A,F][F,A,F][F,CF] [C,C]3 | %10
[M:13/16] [^F,C_E][F,B,E][F,CE][G,C=E][A,CE]3/2[=F,A,C] |[M:3/4] [G,C][G,B,] [G,,F,] [C,E,]3 |] %12
V:3
 x6 | x6 | x6 | x6 | z3 .E3 | x6 | x6 | x6 | [EG][CE][DF] .[EG]2 _B, | x6 |[M:13/16] x13/2 | %11
[M:3/4] x6 |] %12
V:4
 x6 | x6 | x6 | x6 | x6 | x6 | [^F,C_E][F,B,E][F,CE] G,A,[=F,A,C] | x6 | x6 | x6 |[M:13/16] x13/2 | %11
[M:3/4] x6 |] %12

